Obsidian-SemiLight/actions/16s/edit-clone.svg

<svg xmlns="http://www.w3.org/2000/svg" viewBox="0 0 16 16">
  <defs id="defs3051">
    <style type="text/css" id="current-color-scheme">
      .ColorScheme-Text {
        color:#4d4d4d;
      }
      </style>
  </defs>
 <path style="fill:currentColor;fill-opacity:1;stroke:none" 
     d="M 2 2 L 2 13 L 5 13 L 5 14 L 7 14 L 7 13 L 6 13 L 6 5 L 12 5 L 12 6 L 13 6 L 13 4 L 12 4 L 12 2 L 2.7851562 2 L 2 2 z M 3 3 L 11 3 L 11 4 L 5 4 L 5 12 L 3 12 L 3 3 z M 11.003906 7 A 2 2 0 0 0 9.0039062 9 L 9.0039062 11 L 8.0039062 11 L 8.0039062 14 L 14.003906 14 L 14.003906 11 L 13.003906 11 L 13.003906 9 A 2 2 0 0 0 11.003906 7 z M 11.003906 8 A 1 1 0 0 1 12.003906 9 L 12.003906 11 L 10.003906 11 L 10.003906 9 A 1 1 0 0 1 11.003906 8 z "
     class="ColorScheme-Text"
     />
</svg>

<svg viewBox="0 0 16 16" xmlns="http://www.w3.org/2000/svg"><path d="m2 2v11h3v1h2v-1h-1v-8h6v1h1v-2h-1v-2h-9.2148438zm1 1h8v1h-6v8h-2zm8.003906 4a2 2 0 0 0 -1.9999998 2v2h-1v3h5.9999998v-3h-1v-2a2 2 0 0 0 -2-2zm0 1a1 1 0 0 1 1 1v2h-2v-2a1 1 0 0 1 1-1z" fill="#4d4d4d"/></svg>
